X:0988
T:A Sky Air.
M:C
L:1/8
Q:1/2=100
I: ||
Z:Jack Campin * www.campin.me.uk * 2009
K:G
  G2 FE G2DE|G2AF G4 |\
  cA`BG A2BG|A2Bd e4 |
  d>edB d2dB|d2e2 g3  \
a|ba`ge g2dB|A2Bd e3  \
a|ba`ge g2dB|A2Bd e4|]

